icons/restructuredtext.svg

<svg width="16" height="16" viewBox="0 0 16 16" fill="none" xmlns="http://www.w3.org/2000/svg">
<path fill-rule="evenodd" clip-rule="evenodd" d="M1 4C1 3.44772 1.44772 3 2 3H14C14.5523 3 15 3.44772 15 4V12C15 12.5523 14.5523 13 14 13H2C1.44772 13 1 12.5523 1 12V4ZM11.8049 5.02115C12.0781 4.9859 12.3248 4.99471 12.5451 5.04758C12.6773 5.08283 12.8138 5.1313 12.9548 5.19298C13.2721 5.35159 13.4747 5.58511 13.5629 5.89352C13.5805 5.95521 13.5893 6.05654 13.5893 6.19753C13.5893 6.35615 13.5805 6.46629 13.5629 6.52798C13.4835 6.79233 13.3558 7.02144 13.1795 7.2153C12.9328 7.46204 12.5627 7.65149 12.0692 7.78367C11.6639 7.8806 11.1132 7.94228 10.417 7.96872H10.0998L10.0734 8.04802C9.98524 8.53268 9.94118 8.76619 9.94118 8.74857C9.89712 9.06579 9.89271 9.34777 9.92796 9.59451C10.0249 10.0615 10.2848 10.3171 10.7078 10.3611C10.7431 10.3699 10.7827 10.3744 10.8268 10.3744C11.285 10.3744 11.7256 10.2466 12.1485 9.99104C12.36 9.86767 12.5759 9.69584 12.7962 9.47555C12.9548 9.31693 13.065 9.24644 13.1267 9.26406L13.3117 9.44911C13.4351 9.5901 13.4835 9.69144 13.4571 9.75312C13.4131 9.83243 13.2633 9.99104 13.0077 10.229C12.5847 10.555 12.0913 10.7797 11.5273 10.9031C11.307 10.9559 11.0471 10.9824 10.7475 10.9824C10.4743 10.9824 10.2452 10.9515 10.0601 10.8899C9.79578 10.7929 9.55786 10.6431 9.34638 10.4404C9.18776 10.273 9.0644 10.0924 8.97628 9.89851C8.80885 9.57248 8.71192 9.18475 8.68549 8.73535C8.65905 7.83654 8.919 7.04347 9.46534 6.35615C9.63276 6.14466 9.81781 5.96402 10.0205 5.81422C10.5492 5.38244 11.144 5.11808 11.8049 5.02115ZM12.2411 5.6556C11.871 5.58511 11.5053 5.67323 11.144 5.91996C10.8268 6.12263 10.58 6.44867 10.4038 6.89808C10.3069 7.136 10.2584 7.28139 10.2584 7.33426C10.2584 7.36951 10.5756 7.3607 11.2101 7.30783C11.2718 7.30783 11.3246 7.30342 11.3687 7.29461C11.9503 7.23293 12.3512 7.06991 12.5715 6.80555C12.6684 6.68218 12.7301 6.53679 12.7566 6.36936C12.8006 6.05214 12.6861 5.83184 12.4129 5.70847C12.36 5.68204 12.3028 5.66441 12.2411 5.6556ZM4.89015 5.04746C4.66104 4.99459 4.47158 4.99019 4.32178 5.03425C4.19841 5.06068 4.06624 5.11796 3.92525 5.20608C3.59039 5.444 3.30842 5.94627 3.07931 6.71291L3 7.03013C3 7.07419 3.01322 7.10944 3.03965 7.13588L3.07931 7.17553H3.3701C3.56396 7.17553 3.6697 7.16672 3.68733 7.14909C3.69614 7.14028 3.71376 7.10944 3.7402 7.05657C3.87237 6.55429 3.98252 6.19741 4.07064 5.98593C4.14995 5.83613 4.23366 5.73038 4.32178 5.6687C4.35703 5.64226 4.40109 5.62905 4.45396 5.62905C4.53326 5.64667 4.59054 5.68632 4.62579 5.74801C4.66985 5.85375 4.67866 6.02118 4.65222 6.25028C4.6346 6.37365 4.45396 7.10063 4.1103 8.43122C3.77544 9.77944 3.60802 10.4932 3.60802 10.5725C3.62564 10.784 3.7446 10.9206 3.9649 10.9823C4.21163 11.0351 4.42752 10.969 4.61257 10.784C4.64782 10.7487 4.66985 10.7223 4.67866 10.7047C4.73153 10.6254 4.91658 9.94686 5.23381 8.66914C5.55103 7.42667 5.72727 6.77018 5.76252 6.69969C6.05331 6.12692 6.35732 5.78325 6.67455 5.6687C6.87722 5.60702 7.07108 5.61583 7.25613 5.69514C7.39712 5.74801 7.48083 5.80088 7.50727 5.85375C7.50727 5.87137 7.48083 5.8934 7.42796 5.91984C7.28697 5.98152 7.16801 6.10048 7.07108 6.27672C7.0094 6.40008 6.97856 6.53667 6.97856 6.68647C6.98737 6.7834 7.00499 6.8539 7.03143 6.89796C7.07549 7.0037 7.15039 7.083 7.25613 7.13588C7.51167 7.27687 7.78925 7.23721 8.08885 7.01692C8.29152 6.8583 8.40608 6.61157 8.43251 6.27672C8.44133 6.12692 8.4237 5.98593 8.37964 5.85375C8.22984 5.39553 7.85974 5.11796 7.26935 5.02103C6.9345 4.96816 6.60846 5.02103 6.29123 5.17964C6.12381 5.26776 5.95638 5.38672 5.78896 5.53652L5.66999 5.65548L5.61712 5.57618C5.55544 5.46162 5.4541 5.35147 5.31311 5.24573C5.17212 5.1488 5.03114 5.08271 4.89015 5.04746Z" fill="#5BAA1D"/>
</svg>

<svg xmlns="http://www.w3.org/2000/svg" width="16" height="16" fill="none" viewBox="0 0 16 16"><path fill="#5BAA1D" fill-rule="evenodd" d="M1 4a1 1 0 0 1 1-1h12a1 1 0 0 1 1 1v8a1 1 0 0 1-1 1H2a1 1 0 0 1-1-1zm10.805 1.021q.41-.052.74.027.198.052.41.145.476.238.608.7.027.093.026.305 0 .237-.026.33-.12.396-.383.687-.37.37-1.11.569-.609.145-1.653.185H10.1l-.027.079q-.132.727-.132.7-.066.477-.013.847.146.7.78.766a.5.5 0 0 0 .119.013 2.5 2.5 0 0 0 1.322-.383q.317-.185.647-.515.239-.24.33-.212l.186.185q.185.211.145.304-.066.12-.45.476-.634.489-1.48.674-.33.08-.78.08a2.2 2.2 0 0 1-.687-.093 2 2 0 0 1-.714-.45 2 2 0 0 1-.37-.541q-.25-.49-.29-1.164-.04-1.348.78-2.379.25-.317.555-.542a3.6 3.6 0 0 1 1.784-.793m.436.635q-.555-.106-1.097.264-.476.305-.74.978-.146.357-.146.436 0 .054.952-.026a1 1 0 0 0 .159-.013q.871-.093 1.203-.49a.9.9 0 0 0 .185-.436q.066-.476-.344-.66a.6.6 0 0 0-.172-.053m-7.35-.609q-.345-.079-.57-.013a1.3 1.3 0 0 0-.396.172q-.503.357-.846 1.507L3 7.03q0 .066.04.106l.04.04h.29q.291 0 .317-.027a.5.5 0 0 0 .053-.092q.199-.755.33-1.071a.9.9 0 0 1 .252-.317.2.2 0 0 1 .132-.04q.12.027.172.119.066.159.026.502-.026.185-.542 2.181-.502 2.022-.502 2.142.027.317.357.41a.67.67 0 0 0 .648-.199.4.4 0 0 0 .066-.08q.08-.118.555-2.035.475-1.863.529-1.97.435-.859.912-1.03a.82.82 0 0 1 .581.026q.212.08.251.159 0 .026-.079.066-.212.092-.357.357a.9.9 0 0 0-.092.41.5.5 0 0 0 .052.211.46.46 0 0 0 .225.238q.384.21.833-.12.304-.236.344-.74.012-.224-.053-.422-.225-.687-1.11-.833-.503-.08-.979.159a2.5 2.5 0 0 0-.502.357l-.119.118-.053-.079a1.05 1.05 0 0 0-.304-.33 1.3 1.3 0 0 0-.423-.199" clip-rule="evenodd"/></svg>
